X: 6
T: Willie Coleman's Jig
R: Double Jig
C: Willie Coleman
S: Nova Irish Session 2008-2-9
M: 6/8
L: 1/8
K: G
A |:\
B2G AGE | GED GBd | edB dgb | age dBA |\
B2G AGE | GED GBd | edB dBA |1 BGF G2A :|2 BGF G2d ||
|:\
gfg edB | dgb age | gfg edB | GBd e2f |\
gfg edB | dgb age | d^cd gdB |1 AGF G2d :|2 AGF G2A |]
